X:1
T:028 - Nasceu o Redentor
T:Letra: Francis Bottome (1823-1894)
T:Trad.: Benjamim Rufino Duarte (1874-1942)
T:Música: William James Kirkpatrick (1838-1921)
M:3/4
L:1/4
K:C
V:1
G | "C"G>A G/E/ | (GG) c | "F"c>d c/A/ | (cc) A| "C"G>A G/E/ | G2E | "Am"E>E "D7"D/C/ | "G"D-DG | "C"G>A G/E/ | (GG) c | "F"c>d c/A/ | (cc) A | "C/G"G2c | "G7"e2d | "C"Hc2 c/d/ | e>d c/d/ | e2c | "F"c>d c/A/ | c-cA | "C"G>A G/E/ | G2E | "Am"E>E "D7"D/C/ | "G"D2G | "C"G>A G/E/ | (GG) c | "F"c>d c/A/ | (cc) A | "C/G"G2c | "G7"e2d | "C"Hc2 |] 
w: 1.~A-ler-ta,ó ter-ra,en-to-a o can-to que res-so-a: O mun-do pe-ca-dor tem gran-de sor-tee bo-a. A no-va se vos dá,_ e quão a-le-gre so-a: Nas-ceu o Re-den-tor! Nas_ceu o Re-den-tor! Nas-ceu o Re-den-tor!_ Oe-ter-no Pai do céu seu Fi-lhoao mun-do deu. A-ler-ta,ó ter-ra,en-to-a a no-vaa-le-gree bo-a: Nas-ceu o Re-den-tor!
w: 2.~A noi-te já pas-sou,_ aau-ro-ra já rai-ou;_ O ne-groe den-so véu de to-do se ras-gou._ Dos mon-tes a-tra-vés_ o bra-do res-so-ou:_ 
w: 3.~Nas-ceu o Rei da paz,_ num ber-çohu-mil-de jaz;_ Nas a-sas des-sea-mor con-for-toa to-dos traz._ Di-zei em al-ta voz_ que Cris-to sa-tis-faz:_ 
w: 4.~Ó go-zo di-vi-nal,_ a-mor ce-les-ti-al,_ Quem po-de Te son-dar ou ter um ou-troi-gual?_ Pos-soeu, da mor-te réu,_ go-zar ven-tu-ra tal?_ 
w: 5.~Ó po-vos, e-xul-tai!_ Na-ções, oh, ju-bi-lai!_ Eis fin-da to-daa dor, ja-mais se dá um ai;_ A vir-gem deu à luz;_ a Deus glo-ri-fi-cai!_ 
E:30
W:  
W:  
W: 1. Alerta, ó terra, entoa o canto que ressoa:
W: O mundo pecador tem pecador sorte e boa.
W: A nova se vos dá, e quão alegre soa:
W: Nasceu o Redentor!
W: 
W:    (Estribilho)
W:    Nasceu o Redentor! Nasceu o Redentor!
W:    O eterno Pai do céu seu Filho ao mundo deu.      
W:    Alerta, ó terra, entoa a nova alegre e boa:         
W:    Nasceu o Redentor!
W:
W: 2. A noite já passou, a aurora já raiou;
W: O negro e denso véu de todo se rasgou.
W: Dos montes através o brado ressoou:
W:                 Nasceu o Redentor!
W: 
W:
W:
W: 3. Nasceu o Rei da paz, num berço humilde jaz;
W: Nas asas desse amor conforto a todos traz.
W: Dizei em alta voz que Cristo satisfaz:
W:                 Nasceu o Redentor!
W: 
W: 4. Ó gozo divinal, amor celestial,
W: Quem pode Te sondar ou ter um outro igual?
W: Posso eu, da morte réu, gozar ventura tal?
W:                 Nasceu o Redentor!
W: 
W: 5. Ó povos, exultai! Nações, oh, jubilai!
W: Eis finda toda a dor, jamais se dá um ai;
W: A virgem deu à luz; a Deus glorificai!
W:                 Nasceu o Redentor!
W: 





